icons/glyphs/glyph-vector.svg

<?xml version="1.0" encoding="UTF-8" standalone="no"?><svg height="16" viewBox="0 0 4.2333332 4.2333332" width="16" xmlns="http://www.w3.org/2000/svg"><sodipodi:namedview/><metadata><rdf:RDF><cc:Work><dc:format>image/svg+xml</dc:format><dc:type/><dc:title/></cc:Work></rdf:RDF></metadata><path d="m1.782258.41104535v.2062464h-1.3644102v-.094801h-.3501118v.3501123h.3501118v-.094801h1.2777143c-.380918.1219174-.715933.40404505-.9702986.78388095-.2852925.4260153-.4756879.9781819-.5329115 1.5917875h-.192352v.6688173h.6688171v-.6688173h-.1951019c.056826-.56099.2337219-1.0609665.4847152-1.435764.2283525-.340991.5123627-.5751761.8238276-.6735934v.035749h.6688172v-.035749c.3115273.098466.5956833.3326974.8239723.6735934.25106.3748955.427938.874729.4847149 1.435764h-.1952464v.6688173h.6688172v-.6688173h-.192352c-.0572245-.6136056-.2476197-1.1657722-.5329117-1.5917875-.2543713-.379844-.5896808-.66196765-.9707328-.78388095h1.2782935v.094801h.3499675v-.3501123h-.3499675v.094801h-1.364555v-.2062464z" fill="#d0d0d0"/></svg>

<?xml version="1.0" encoding="UTF-8" standalone="no"?>
<!-- Created with Inkscape (http://www.inkscape.org/) -->

<svg
     xmlns:dc="http://purl.org/dc/elements/1.1/"
     xmlns:cc="http://creativecommons.org/ns#"
     xmlns:rdf="http://www.w3.org/1999/02/22-rdf-syntax-ns#"
     xmlns:svg="http://www.w3.org/2000/svg"
     xmlns="http://www.w3.org/2000/svg"
     xmlns:sodipodi="http://sodipodi.sourceforge.net/DTD/sodipodi-0.dtd"
     xmlns:inkscape="http://www.inkscape.org/namespaces/inkscape"
     width="16"
     height="16"
     viewBox="0 0 4.2333332 4.2333332"
     version="1.1"
     id="svg8"
     inkscape:version="0.92+devel (fa9b7f7a5b, 2017-07-19, custom)"
     sodipodi:docname="glyph-vector.svg">
    <defs
         id="defs2" />
    <sodipodi:namedview
         id="base"
         pagecolor="#002466"
         bordercolor="#ffffff"
         borderopacity="0.38039216"
         inkscape:pageopacity="1"
         inkscape:pageshadow="2"
         inkscape:zoom="7.1685545"
         inkscape:cx="12.573144"
         inkscape:cy="16.616071"
         inkscape:document-units="px"
         inkscape:current-layer="svg8"
         inkscape:document-rotation="0"
         showgrid="false"
         inkscape:showpageshadow="false"
         borderlayer="true"
         inkscape:window-width="1920"
         inkscape:window-height="1051"
         inkscape:window-x="0"
         inkscape:window-y="0"
         inkscape:window-maximized="1"
         units="px" />
    <metadata
         id="metadata5">
        <rdf:RDF>
            <cc:Work
                 rdf:about="">
                <dc:format>image/svg+xml</dc:format>
                <dc:type
                     rdf:resource="http://purl.org/dc/dcmitype/StillImage" />
                <dc:title></dc:title>
            </cc:Work>
        </rdf:RDF>
    </metadata>
    <path
         inkscape:connector-curvature="0"
         id="rect830"
         d="m 1.782258,0.41104535 v 0.2062464 H 0.4178478 v -0.094801 H 0.067736 v 0.3501123 h 0.3501118 v -0.094801 H 1.6955621 C 1.3146441,0.89971945 0.9796291,1.1818471 0.7252635,1.561683 0.439971,1.9876983 0.2495756,2.5398649 0.192352,3.1534705 H 0 V 3.8222878 H 0.6688171 V 3.1534705 H 0.4737152 C 0.5305412,2.5924805 0.7074371,2.092504 0.9584304,1.7177065 1.1867829,1.3767155 1.4707931,1.1425304 1.782258,1.0441131 v 0.035749 h 0.6688172 v -0.035749 c 0.3115273,0.098466 0.5956833,0.3326974 0.8239723,0.6735934 0.25106,0.3748955 0.427938,0.874729 0.4847149,1.435764 H 3.564516 V 3.8222878 H 4.2333332 V 3.1534705 H 4.0409812 C 3.9837567,2.5398649 3.7933615,1.9876983 3.5080695,1.561683 3.2536982,1.181839 2.9183887,0.89971535 2.5373367,0.77780205 h 1.2782935 v 0.094801 H 4.1655977 V 0.52249075 H 3.8156302 v 0.094801 h -1.364555 v -0.2062464 z"
         style="opacity:1;fill:#d0d0d0;stroke:none;stroke-width:0.18625183;stroke-miterlimit:4;stroke-dasharray:none"
         inkscape:label="#1" />
</svg>
